icons/purgatory/icon_shortcut-template_xxl_black.svg

<svg xmlns="http://www.w3.org/2000/svg" width="48" height="48" viewBox="0 0 48 48">
  <g fill="none" fill-rule="evenodd">
    <rect width="48" height="48"/>
    <circle cx="24" cy="24" r="22" fill="#F5F5F5" fill-rule="nonzero"/>
    <path fill="#0B1F35" fill-rule="nonzero" d="M24,13.241 C24.2,13.241 24.401,13.356 24.476,13.586 L26.773,20.654 C26.8388876,20.8606139 27.0311359,21.0006516 27.248,21 L34.679,21 C34.8959122,20.9996591 35.0883034,21.1392163 35.1553223,21.3455158 C35.2223411,21.5518152 35.1486993,21.7777964 34.973,21.905 L28.961,26.273 C28.7856294,26.400222 28.712148,26.6259148 28.779,26.832 L31.075,33.9 C31.1245835,34.0527397 31.098101,34.2199826 31.0037546,34.3499314 C30.9094082,34.4798802 30.7585861,34.5568492 30.598,34.557 C30.4926631,34.5565689 30.3902693,34.5222038 30.306,34.459 L24.294,30.091 C24.1189175,29.9629403 23.8810825,29.9629403 23.706,30.091 L17.694,34.459 C17.6097307,34.5222038 17.5073369,34.5565689 17.402,34.557 C17.2414139,34.5568492 17.0905918,34.4798802 16.9962454,34.3499314 C16.901899,34.2199826 16.8754165,34.0527397 16.925,33.9 L19.221,26.832 C19.2881841,26.6259147 19.2146391,26.4000266 19.039,26.273 L13.027,21.905 C12.8513007,21.7777964 12.7776589,21.5518152 12.8446777,21.3455158 C12.9116966,21.1392163 13.1040878,20.9996591 13.321,21 L20.752,21 C20.9686554,21.0002737 21.1608369,20.8609824 21.228,20.655 L23.525,13.587 C23.5889335,13.3789842 23.7824008,13.2380585 24,13.241 Z M24,12.241 C23.348,12.241 22.775,12.658 22.573,13.278 L20.389,20 L13.321,20 C12.669,20 12.096,20.417 11.895,21.036 C11.694,21.656 11.913,22.33 12.44,22.713 L18.158,26.867 L15.973,33.59 C15.823,34.053 15.899,34.542 16.182,34.932 C16.466,35.323 16.922,35.556 17.401,35.556 C17.717,35.556 18.021,35.456 18.281,35.267 L24,31.112 L29.718,35.267 C29.978,35.456 30.282,35.556 30.598,35.556 C31.077,35.556 31.533,35.323 31.817,34.932 C32.1,34.542 32.177,34.053 32.026,33.59 L29.842,26.868 L35.56,22.714 C36.0865486,22.3326517 36.3067628,21.6550387 36.105,21.037 C35.9057852,20.4179874 35.3292781,19.9987462 34.679,20 L27.611,20 L25.427,13.277 C25.2267807,12.6584228 24.6501724,12.239806 24,12.241 Z"/>
  </g>
</svg>

<svg width="48" height="48" viewBox="0 0 48 48" xmlns="http://www.w3.org/2000/svg"><title>Templates</title><g fill="none" fill-rule="evenodd"><circle fill="#F5F5F5" cx="24" cy="24" r="22"/><path d="M24 13.241c.2 0 .401.115.476.345l2.297 7.068a.497.497 0 0 0 .475.346h7.431a.5.5 0 0 1 .294.905l-6.012 4.368a.5.5 0 0 0-.182.559l2.296 7.068a.502.502 0 0 1-.477.657.49.49 0 0 1-.292-.098l-6.012-4.368a.498.498 0 0 0-.588 0l-6.012 4.368a.49.49 0 0 1-.292.098.502.502 0 0 1-.477-.657l2.296-7.068a.499.499 0 0 0-.182-.559l-6.012-4.368a.5.5 0 0 1 .294-.905h7.431a.5.5 0 0 0 .476-.345l2.297-7.068a.49.49 0 0 1 .475-.346zm0-1c-.652 0-1.225.417-1.427 1.037L20.389 20h-7.068c-.652 0-1.225.417-1.426 1.036-.201.62.018 1.294.545 1.677l5.718 4.154-2.185 6.723c-.15.463-.074.952.209 1.342.284.391.74.624 1.219.624.316 0 .62-.1.88-.289L24 31.112l5.718 4.155c.26.189.564.289.88.289.479 0 .935-.233 1.219-.624.283-.39.36-.879.209-1.342l-2.184-6.722 5.718-4.154a1.497 1.497 0 0 0 .545-1.677A1.495 1.495 0 0 0 34.679 20h-7.068l-2.184-6.723A1.497 1.497 0 0 0 24 12.241z" fill="#0B1F35"/></g></svg>
